X: 1
T: Cormac O'Lunney's
M: 4/4
L: 1/8
R: reel
K: Gmaj
dG~G2 Bdge|dG~G2 AGED|dG~G2 Bdge|dBAG EGGB|
dG~G2 Bdge|dG~G2 AGEA|gfed efge|dBAG EGGA|
Bdgd edgd|Bdgd BAAd|Bdgd edge|dBAG EGGA|
Bdgd edgd|Bdgd BAAa|gfed efge|dBAG EGG2|
